{"compressionlevel":-1,"height":12,"infinite":false,"layers":[{"data":[721,757,739,722,721,757,739,722,721,757,739,722,721,746,729,714,713,746,729,714,722,721,757,739,722,721,757,739,722,721,757,739,722,713,746,729,714,713,746,729,739,722,721,757,739,722,721,757,739,722,721,757,739,714,713,746,729,714,713,746,757,739,722,721,757,739,722,721,757,739,722,721,757,729,714,713,746,729,714,713,721,757,739,722,721,757,739,722,721,757,739,722,721,746,729,714,713,746,729,714,722,721,757,739,722,721,757,739,722,721,757,739,722,713,746,729,714,713,746,729,739,722,721,757,739,722,721,757,739,722,721,757,739,714,713,746,729,714,713,746,757,739,722,721,757,739,722,721,757,739,722,721,757,729,714,713,746,729,714,713,721,757,739,722,721,757,739,722,721,757,739,722,721,746,729,714,713,746,729,714,722,721,757,739,722,721,757,739,722,721,757,739,722,713,746,729,714,713,746,729,739,722,721,757,739,722,721,757,739,722,721,757,739,714,713,746,729,714,713,746,757,739,722,721,757,739,722,721,757,739,722,721,757,729,714,713,746,729,714,713],"height":12,"id":1,"name":"ground","opacity":1,"type":"tilelayer","visible":true,"width":20,"x":0,"y":0},{"data":[449,450,451,452,453,454,455,456,0,269,270,0,449,450,451,452,453,454,455,456,465,466,467,468,469,470,471,472,0,285,286,0,465,466,467,468,469,470,471,472,0,0,282,0,0,0,0,0,282,0,0,0,0,0,0,282,0,0,0,282,0,0,0,0,0,0,0,0,0,0,0,361,362,423,424,0,297,298,299,300,431,432,0,0,697,0,697,0,0,0,0,377,378,439,440,0,313,314,315,316,447,448,0,697,73,74,75,76,697,0,0,0,0,491,492,0,329,330,331,332,0,0,0,697,89,90,91,92,697,0,0,0,0,0,0,0,345,346,347,348,0,0,0,0,0,697,0,697,0,0,0,0,0,421,422,0,301,302,0,0,0,0,0,0,0,0,0,0,0,505,506,363,364,437,438,0,317,318,0,0,0,0,0,0,0,0,0,0,0,0,0,379,380,0,0,0,333,334,0,0,481,482,485,486,481,482,485,486,0,0,0,0,0,0,481,482,349,350,481,482,497,498,501,502,497,498,501,502,0,0,0,0,0,0,497,498,501,502,497,498],"height":12,"id":2,"locked":true,"name":"structures","opacity":1,"type":"tilelayer","visible":true,"width":20,"x":0,"y":0}],"nextlayerid":3,"nextobjectid":1,"orientation":"orthogonal","renderorder":"right-down","tiledversion":"1.12.2","tileheight":48,"tilesets":[{"columns":16,"firstgid":1,"image":"../../assets/tilesets/Medieval Tavern/tile-B-01.png","imageheight":768,"imagewidth":768,"margin":0,"name":"medieval-tavern-b01","spacing":0,"tilecount":256,"tileheight":48,"tilewidth":48},{"columns":16,"firstgid":257,"image":"../../assets/tilesets/Medieval Tavern/tile-B-03.png","imageheight":768,"imagewidth":768,"margin":0,"name":"medieval-tavern-b03","spacing":0,"tilecount":256,"tileheight":48,"tilewidth":48},{"columns":16,"firstgid":513,"image":"../../assets/tilesets/Medieval Tavern/tile-B-05.png","imageheight":768,"imagewidth":768,"margin":0,"name":"medieval-tavern-b05","spacing":0,"tilecount":256,"tileheight":48,"tilewidth":48}],"tilewidth":48,"type":"map","version":"1.10","width":20}