{"compressionlevel":-1,"height":14,"infinite":false,"layers":[{"data":[7,8,7,8,7,8,7,8,7,8,7,8,7,8,7,8,7,8,7,8,23,24,23,24,23,24,23,24,23,24,23,24,23,24,23,24,23,24,23,24,7,8,7,8,7,8,7,8,7,8,7,8,7,8,7,8,7,8,7,8,23,24,23,24,23,24,23,24,23,24,23,24,23,24,23,24,23,24,23,24,7,8,7,8,7,8,7,8,7,8,7,8,7,8,7,8,7,8,7,8,23,24,23,24,23,24,23,24,23,24,23,24,23,24,23,24,23,24,23,24,7,8,7,8,7,8,7,8,7,8,7,8,7,8,1,2,1,2,1,2,23,24,23,24,23,24,23,24,23,24,23,24,23,24,17,18,17,18,17,18,7,8,7,8,7,8,7,8,7,8,7,8,7,8,1,2,1,2,1,2,23,24,23,24,23,24,23,24,23,24,23,24,23,24,17,18,17,18,17,18,7,8,7,8,7,8,7,8,7,8,7,8,7,8,1,2,1,2,1,2,23,24,23,24,23,24,23,24,23,24,23,24,23,24,17,18,17,18,17,18,7,8,7,8,7,8,7,8,7,8,7,8,7,8,7,8,7,8,7,8,23,24,23,24,23,24,23,24,23,24,23,24,23,24,23,24,23,24,23,24],"height":14,"id":1,"name":"ground","opacity":1,"type":"tilelayer","visible":true,"width":20,"x":0,"y":0},{"data":[67,68,67,108,67,68,108,68,67,108,67,68,108,68,67,108,67,68,67,68,83,84,83,124,83,84,124,84,83,124,83,84,124,84,83,124,83,84,83,84,67,0,513,514,0,0,0,0,0,0,0,0,0,0,0,0,0,0,0,68,83,0,529,530,519,520,0,515,516,0,515,516,0,265,266,0,519,520,0,84,220,0,545,546,535,536,0,531,532,0,531,532,0,281,282,0,535,536,0,220,83,0,0,0,0,0,0,0,0,0,0,0,0,0,0,0,0,0,0,84,65,0,0,0,0,0,0,0,0,0,0,0,0,0,0,0,0,0,0,68,81,517,518,0,0,0,0,485,486,0,485,486,0,0,174,172,173,0,207,84,65,533,534,0,0,0,0,501,502,0,501,502,0,0,190,188,189,0,255,68,81,174,0,174,0,0,0,0,0,0,0,0,0,0,0,43,44,0,0,84,220,190,0,190,0,0,0,0,0,0,0,0,0,0,0,59,60,0,0,68,83,0,212,0,0,0,0,0,0,0,0,0,0,0,0,0,0,0,0,220,67,167,168,68,169,170,171,68,65,99,100,66,67,167,168,68,169,170,171,68,83,183,184,84,185,186,187,84,81,115,116,82,83,183,184,84,185,186,187,84],"height":14,"id":2,"locked":true,"name":"structures","opacity":1,"type":"tilelayer","visible":true,"width":20,"x":0,"y":0},{"data":[0,0,0,0,0,0,0,0,0,0,0,0,0,0,0,0,0,0,0,0,0,0,0,0,0,0,0,0,0,0,0,0,0,0,0,0,0,0,0,0,0,0,0,0,0,0,0,0,0,0,0,0,0,0,0,0,0,0,0,0,0,0,0,0,0,0,0,0,0,0,0,0,0,0,0,0,0,0,0,0,0,0,0,0,0,0,0,0,0,0,0,0,0,0,0,0,0,0,0,0,0,0,0,0,0,0,0,0,0,0,0,0,0,0,0,0,0,0,0,0,0,0,0,0,0,0,0,0,0,0,0,0,0,0,0,0,0,0,0,0,0,0,0,0,0,0,0,0,0,0,0,0,0,0,0,0,0,0,0,0,0,0,0,0,0,0,0,256,0,0,0,254,0,0,0,0,0,0,0,0,0,0,0,0,0,0,0,0,0,0,0,0,0,0,0,0,0,0,0,0,0,0,196,0,0,0,0,0,0,0,0,0,0,0,0,0,0,0,0,0,0,0,0,0,0,0,0,0,0,0,0,0,0,0,0,0,0,0,0,0,0,0,0,0,0,0,0,0,0,0,0,0,0,0,0,0,0,0,0,0,0,0,0,0,0,0,0,0,0,0,0,0,0,0,0,0,0,0,0,0],"height":14,"id":3,"locked":true,"name":"overlay","opacity":1,"type":"tilelayer","visible":true,"width":20,"x":0,"y":0}],"nextlayerid":4,"nextobjectid":1,"orientation":"orthogonal","renderorder":"right-down","tiledversion":"1.12.2","tileheight":48,"tilesets":[{"columns":16,"firstgid":1,"image":"../../assets/tilesets/19th Century European City/tile-B-04.png","imageheight":768,"imagewidth":768,"margin":0,"name":"european-city-b04","spacing":0,"tilecount":256,"tileheight":48,"tilewidth":48},{"columns":16,"firstgid":257,"image":"../../assets/tilesets/19th Century European City/tile-B-02.png","imageheight":768,"imagewidth":768,"margin":0,"name":"european-city-b02","spacing":0,"tilecount":256,"tileheight":48,"tilewidth":48},{"columns":16,"firstgid":513,"image":"../../assets/tilesets/derived/canal-works.png","imageheight":144,"imagewidth":768,"margin":0,"name":"derived-canal-works","spacing":0,"tilecount":48,"tileheight":48,"tilewidth":48}],"tilewidth":48,"type":"map","version":"1.10","width":20}