{"compressionlevel":-1,"height":14,"infinite":false,"layers":[{"data":[7,8,7,8,7,8,7,8,7,8,7,8,7,8,7,8,7,8,7,8,7,8,23,24,23,24,23,24,23,24,23,24,23,24,23,24,23,24,23,24,23,24,23,24,7,8,7,8,7,8,7,8,7,16,15,16,15,16,15,16,15,16,15,16,15,16,23,24,23,24,23,24,23,24,23,32,31,32,31,32,31,32,31,32,31,32,31,32,7,8,7,8,7,8,7,8,7,16,15,16,15,16,15,16,15,16,15,16,15,16,23,24,23,24,23,24,23,24,23,32,31,32,31,32,31,32,31,32,31,32,31,32,7,8,7,8,7,8,7,8,7,8,7,8,7,8,7,8,7,8,7,8,7,8,23,24,23,24,23,24,23,24,23,24,23,24,23,24,23,24,23,24,23,24,23,24,7,8,7,8,7,8,7,8,7,8,7,8,7,8,7,8,7,8,7,8,7,8,23,24,23,24,23,24,23,24,23,24,23,24,23,24,23,24,23,24,23,24,23,24,7,8,7,8,7,8,7,8,7,8,7,8,7,8,7,8,7,8,7,8,7,8,23,24,23,24,23,24,23,24,23,24,23,24,23,24,23,24,23,24,23,24,23,24,7,8,7,8,7,8,7,8,7,8,7,8,7,8,7,8,7,8,7,8,7,8,23,24,23,24,23,24,23,24,23,24,23,24,23,24,23,24,23,24,23,24,23,24],"height":14,"id":1,"name":"ground","opacity":1,"type":"tilelayer","visible":true,"width":22,"x":0,"y":0},{"data":[67,68,108,68,67,108,67,68,67,68,67,108,67,66,65,66,333,334,65,66,108,66,83,84,124,84,83,124,83,84,83,84,83,124,83,82,81,82,349,350,81,82,124,82,67,777,778,777,778,777,778,398,67,0,0,0,0,0,0,0,0,0,0,0,0,68,83,793,794,793,794,793,794,414,83,0,779,780,0,773,774,0,267,268,0,265,266,84,220,673,0,0,0,679,0,0,67,0,795,796,677,789,790,0,283,284,0,281,282,220,83,0,0,0,0,0,0,0,0,0,0,0,0,0,0,0,0,0,0,0,0,84,67,0,0,0,0,0,0,0,0,0,0,0,0,0,0,0,0,0,0,0,0,68,83,455,456,485,486,0,417,418,419,420,0,417,418,419,420,0,0,0,429,430,0,84,67,471,472,501,502,0,433,434,435,436,0,433,434,435,436,0,0,0,445,446,0,68,83,677,694,0,0,0,0,0,0,0,0,0,0,0,0,0,0,0,0,0,0,84,220,0,0,0,0,453,0,0,0,0,0,0,0,0,0,0,453,0,0,0,0,68,83,0,0,0,0,469,0,0,0,0,0,0,0,0,0,0,469,0,0,0,212,220,67,265,266,68,267,268,67,68,67,66,99,100,65,68,455,456,67,265,266,68,67,68,83,281,282,84,283,284,83,84,83,82,115,116,81,84,471,472,83,281,282,84,83,84],"height":14,"id":2,"locked":true,"name":"structures","opacity":1,"type":"tilelayer","visible":true,"width":22,"x":0,"y":0},{"data":[0,0,0,0,0,0,0,0,0,0,0,0,0,0,0,0,0,0,0,0,0,0,0,0,0,0,0,0,0,0,0,0,0,0,0,0,0,0,0,0,0,0,0,0,0,0,0,0,0,0,0,0,0,0,0,0,0,0,0,0,0,0,0,0,0,0,0,0,0,0,0,0,0,0,0,0,0,0,0,0,0,0,0,0,0,0,0,0,0,0,0,0,0,0,0,0,0,0,0,0,0,0,0,0,0,0,0,0,0,0,0,0,0,0,0,0,0,0,0,0,0,0,0,0,0,0,0,0,0,0,0,0,0,0,0,0,0,0,0,0,0,0,0,0,0,0,0,0,0,0,0,0,0,0,0,0,0,0,0,0,0,0,0,0,0,0,0,0,0,0,0,0,0,0,0,0,0,0,0,0,0,0,0,256,0,0,0,0,0,0,0,0,0,0,0,255,0,0,0,0,0,0,0,0,0,0,0,0,0,0,0,0,0,0,0,0,0,0,0,0,0,0,0,0,0,0,0,0,0,0,0,0,0,0,0,0,0,0,0,0,196,0,0,0,0,0,0,0,0,0,0,0,0,0,0,0,0,0,0,0,0,0,0,0,0,0,0,0,0,0,0,0,0,0,0,0,0,0,0,0,0,0,0,0,0,0,0,0,0,0,0,0,0,0,0,0,0,0,0,0,0,0,0,0,0,0,0,0],"height":14,"id":3,"locked":true,"name":"overlay","opacity":1,"type":"tilelayer","visible":true,"width":22,"x":0,"y":0}],"nextlayerid":4,"nextobjectid":1,"orientation":"orthogonal","renderorder":"right-down","tiledversion":"1.12.2","tileheight":48,"tilesets":[{"columns":16,"firstgid":1,"image":"../../assets/tilesets/19th Century European City/tile-B-04.png","imageheight":768,"imagewidth":768,"margin":0,"name":"european-city-b04","spacing":0,"tilecount":256,"tileheight":48,"tilewidth":48},{"columns":16,"firstgid":257,"image":"../../assets/tilesets/19th Century European City/tile-B-02.png","imageheight":768,"imagewidth":768,"margin":0,"name":"european-city-b02","spacing":0,"tilecount":256,"tileheight":48,"tilewidth":48},{"columns":16,"firstgid":513,"image":"../../assets/tilesets/19th Centruy European Dock/tile-B-06.png","imageheight":768,"imagewidth":768,"margin":0,"name":"european-dock-b06","spacing":0,"tilecount":256,"tileheight":48,"tilewidth":48},{"columns":16,"firstgid":769,"image":"../../assets/tilesets/derived/canal-works.png","imageheight":144,"imagewidth":768,"margin":0,"name":"derived-canal-works","spacing":0,"tilecount":48,"tileheight":48,"tilewidth":48}],"tilewidth":48,"type":"map","version":"1.10","width":22}