{"compressionlevel":-1,"height":16,"infinite":false,"layers":[{"data":[309,310,309,310,309,310,309,310,309,310,309,310,309,310,309,310,309,310,309,310,325,326,325,326,325,326,325,326,325,326,325,326,325,326,325,326,325,326,325,326,309,310,309,310,309,310,309,310,309,310,309,310,309,342,341,342,309,310,309,310,325,326,325,326,325,326,325,326,325,326,325,326,325,358,357,358,325,326,325,326,309,310,309,310,309,310,309,310,309,310,309,310,309,342,341,342,309,310,309,310,325,326,325,326,325,326,325,326,325,326,325,326,325,358,357,358,325,326,325,326,309,310,309,310,309,310,309,310,309,310,309,310,309,342,341,342,309,310,309,310,325,326,325,326,325,326,325,326,325,326,325,326,325,326,325,326,325,326,325,326,309,310,309,310,309,310,309,310,309,310,309,310,309,310,309,310,309,310,309,310,325,326,325,326,325,326,325,326,325,326,325,326,325,326,325,326,325,326,325,326,337,338,337,338,337,338,337,338,309,310,309,310,309,310,309,310,309,310,309,310,353,354,353,354,353,354,353,354,325,326,325,326,325,326,325,326,325,326,325,326,337,338,337,338,337,338,337,338,309,310,309,310,309,310,309,310,309,310,309,310,353,354,353,354,353,354,353,354,325,326,325,326,325,326,325,326,325,326,325,326,337,338,337,338,337,338,337,338,309,310,309,310,309,310,309,310,309,310,309,310,353,354,353,354,353,354,353,354,325,326,325,326,325,326,325,326,325,326,325,326],"height":16,"id":1,"name":"ground","opacity":1,"type":"tilelayer","visible":true,"width":20,"x":0,"y":0},{"data":[143,144,143,543,143,144,143,144,143,144,543,144,143,144,143,144,143,543,143,144,159,160,159,559,159,160,159,160,159,160,559,160,159,160,159,160,159,559,159,160,143,667,665,666,667,633,633,144,695,667,633,633,143,625,627,0,143,695,633,144,159,0,681,682,0,649,649,160,711,0,649,649,159,641,643,0,159,711,649,160,143,0,0,0,0,0,0,144,0,0,0,0,143,0,0,0,143,0,0,144,159,693,694,0,0,0,0,160,0,0,0,0,159,661,662,0,159,638,0,160,143,0,0,0,0,0,0,144,0,0,0,0,143,677,678,0,143,654,0,144,159,160,159,160,0,160,159,160,159,0,0,160,159,70,69,0,159,160,0,160,143,725,726,0,0,0,0,0,0,0,0,0,0,0,0,0,725,726,0,144,159,0,0,0,0,0,0,0,0,0,0,0,0,0,0,0,0,0,0,160,143,244,245,246,247,465,0,0,0,0,0,0,0,0,0,529,530,0,635,144,159,506,261,262,263,0,501,502,0,0,0,533,534,0,531,0,0,532,651,160,143,538,539,540,0,0,517,518,0,0,0,549,550,0,579,580,0,0,509,144,159,554,555,556,0,0,725,726,0,0,0,0,587,0,0,0,0,724,525,160,143,144,543,144,143,144,143,144,143,601,601,144,143,511,512,144,143,144,143,144,159,160,559,160,159,160,159,160,159,617,617,160,159,527,528,160,159,160,159,160],"height":16,"id":2,"locked":true,"name":"structures","opacity":1,"type":"tilelayer","visible":true,"width":20,"x":0,"y":0}],"nextlayerid":3,"nextobjectid":1,"orientation":"orthogonal","renderorder":"right-down","tiledversion":"1.12.2","tileheight":48,"tilesets":[{"columns":16,"firstgid":1,"image":"../../assets/tilesets/Living room/Auto-tile-A4-walls-3.png","imageheight":720,"imagewidth":768,"margin":0,"name":"living-room-walls3","spacing":0,"tilecount":240,"tileheight":48,"tilewidth":48},{"columns":16,"firstgid":241,"image":"../../assets/tilesets/Living room/4.png","imageheight":768,"imagewidth":768,"margin":0,"name":"living-room-4","spacing":0,"tilecount":256,"tileheight":48,"tilewidth":48},{"columns":16,"firstgid":497,"image":"../../assets/tilesets/Living room/1.png","imageheight":768,"imagewidth":768,"margin":0,"name":"living-room-1","spacing":0,"tilecount":256,"tileheight":48,"tilewidth":48}],"tilewidth":48,"type":"map","version":"1.10","width":20}