{"compressionlevel":-1,"height":14,"infinite":false,"layers":[{"data":[1,2,1,2,1,2,1,2,1,2,1,2,1,2,1,2,17,18,17,18,17,18,17,18,17,18,17,18,17,18,17,18,1,2,1,2,1,2,1,2,1,2,1,2,1,2,1,2,17,18,17,18,17,18,17,18,17,18,17,18,17,18,17,18,1,2,1,2,1,2,43,44,1,2,1,2,1,2,1,2,17,18,17,18,17,18,59,60,17,18,17,18,17,18,17,18,1,2,1,2,1,2,1,2,1,2,1,2,1,2,1,2,17,18,17,18,17,18,17,18,17,18,17,18,17,18,17,18,39,40,39,40,39,40,39,40,39,40,39,40,39,40,39,40,55,56,55,56,55,56,55,56,55,56,55,56,55,56,55,56,39,40,39,40,39,40,39,40,39,40,39,40,39,40,39,40,55,56,55,56,55,56,55,56,55,56,55,56,55,56,55,56,39,40,39,40,39,40,39,40,39,40,39,40,39,40,39,40,55,56,55,56,55,56,55,56,55,56,55,56,55,56,55,56],"height":14,"id":1,"name":"ground","opacity":1,"type":"tilelayer","visible":true,"width":16,"x":0,"y":0},{"data":[73,74,73,108,73,74,73,74,73,74,73,74,108,74,73,74,89,90,89,124,89,90,89,90,89,90,89,90,124,90,89,90,73,169,170,171,0,0,172,173,207,167,168,0,0,0,164,74,89,185,186,187,0,0,188,189,0,183,184,0,0,0,180,90,73,0,0,0,0,0,0,174,0,0,0,0,0,0,0,74,89,0,0,0,0,0,0,190,0,0,0,0,0,0,0,90,73,481,482,483,255,0,0,0,0,481,482,483,484,429,430,74,89,497,498,499,500,0,0,0,0,497,498,499,500,445,446,90,73,254,486,0,0,0,0,0,0,0,0,0,0,0,174,74,89,501,502,0,0,0,0,0,0,0,0,0,0,0,190,90,73,174,0,0,0,0,0,0,0,0,0,0,485,486,174,74,89,190,0,0,0,0,0,0,0,0,0,0,501,502,190,90,73,74,220,74,108,74,65,99,100,66,73,108,73,220,73,74,89,90,89,90,124,90,81,115,116,82,89,124,89,90,89,90],"height":14,"id":2,"locked":true,"name":"structures","opacity":1,"type":"tilelayer","visible":true,"width":16,"x":0,"y":0}],"nextlayerid":3,"nextobjectid":1,"orientation":"orthogonal","renderorder":"right-down","tiledversion":"1.12.2","tileheight":48,"tilesets":[{"columns":16,"firstgid":1,"image":"../../assets/tilesets/19th Century European City/tile-B-04.png","imageheight":768,"imagewidth":768,"margin":0,"name":"european-city-b04","spacing":0,"tilecount":256,"tileheight":48,"tilewidth":48},{"columns":16,"firstgid":257,"image":"../../assets/tilesets/19th Century European City/tile-B-02.png","imageheight":768,"imagewidth":768,"margin":0,"name":"european-city-b02","spacing":0,"tilecount":256,"tileheight":48,"tilewidth":48}],"tilewidth":48,"type":"map","version":"1.10","width":16}