{"compressionlevel":-1,"height":10,"infinite":false,"layers":[{"data":[721,757,739,722,721,757,722,721,757,739,722,721,739,722,721,757,739,722,757,739,722,721,757,739,721,757,739,722,721,757,722,721,757,739,722,721,739,722,721,757,739,722,757,739,722,721,757,739,721,757,739,722,721,757,722,721,757,739,722,721],"height":10,"id":1,"name":"ground","opacity":1,"type":"tilelayer","visible":true,"width":6,"x":0,"y":0},{"data":[282,269,270,0,0,282,465,285,286,0,0,453,451,0,0,0,0,469,467,0,0,0,0,455,297,0,0,0,0,471,313,0,0,0,0,299,455,0,0,0,0,315,471,0,0,0,0,451,449,0,0,0,0,467,465,0,0,0,0,453],"height":10,"id":2,"locked":true,"name":"structures","opacity":1,"type":"tilelayer","visible":true,"width":6,"x":0,"y":0}],"nextlayerid":3,"nextobjectid":1,"orientation":"orthogonal","renderorder":"right-down","tiledversion":"1.12.2","tileheight":48,"tilesets":[{"columns":16,"firstgid":1,"image":"../../assets/tilesets/Medieval Tavern/tile-B-01.png","imageheight":768,"imagewidth":768,"margin":0,"name":"medieval-tavern-b01","spacing":0,"tilecount":256,"tileheight":48,"tilewidth":48},{"columns":16,"firstgid":257,"image":"../../assets/tilesets/Medieval Tavern/tile-B-03.png","imageheight":768,"imagewidth":768,"margin":0,"name":"medieval-tavern-b03","spacing":0,"tilecount":256,"tileheight":48,"tilewidth":48},{"columns":16,"firstgid":513,"image":"../../assets/tilesets/Medieval Tavern/tile-B-05.png","imageheight":768,"imagewidth":768,"margin":0,"name":"medieval-tavern-b05","spacing":0,"tilecount":256,"tileheight":48,"tilewidth":48}],"tilewidth":48,"type":"map","version":"1.10","width":6}