{"compressionlevel":-1,"height":18,"infinite":false,"layers":[{"data":[137,138,137,138,137,138,137,138,137,138,137,138,137,138,137,138,137,138,137,138,137,138,153,154,153,154,153,154,153,154,153,154,153,154,153,154,153,154,153,154,153,154,153,154,137,138,137,138,137,138,137,138,137,138,137,138,137,138,137,138,137,138,137,138,137,138,153,154,153,154,153,154,153,154,153,154,153,154,153,154,153,154,153,154,153,154,153,154,137,138,137,138,137,138,137,138,137,138,137,138,137,138,137,138,137,138,137,138,137,138,153,154,153,154,153,154,153,154,153,154,153,154,153,154,153,154,153,154,153,154,153,154,137,138,137,138,137,138,137,138,137,138,137,138,137,138,137,138,137,138,137,138,137,138,153,154,153,154,153,154,153,154,153,154,153,154,153,154,153,154,153,154,153,154,153,154,137,138,137,138,137,138,137,138,137,138,137,138,137,138,137,138,137,138,137,138,137,138,153,154,153,154,153,154,153,154,153,154,153,154,153,154,153,154,153,154,153,154,153,154,137,138,137,138,137,138,137,138,137,138,137,138,137,138,137,138,137,138,137,138,137,138,153,154,153,154,153,154,153,154,153,154,153,154,153,154,153,154,153,154,153,154,153,154,137,138,137,138,137,138,137,138,137,138,137,138,137,138,137,138,137,138,137,138,137,138,153,154,153,154,153,154,153,154,153,154,153,154,153,154,153,154,153,154,153,154,153,154,137,138,137,138,137,138,137,138,137,138,137,138,137,138,137,138,137,138,137,138,137,138,153,154,153,154,153,154,153,154,153,154,153,154,153,154,153,154,153,154,153,154,153,154,137,138,137,138,137,138,137,138,137,138,137,138,137,138,137,138,137,138,137,138,137,138,153,154,153,154,153,154,153,154,153,154,153,154,153,154,153,154,153,154,153,154,153,154],"height":18,"id":1,"name":"ground","opacity":1,"type":"tilelayer","visible":true,"width":22,"x":0,"y":0},{"data":[307,308,307,308,307,348,307,308,307,308,348,308,307,308,307,308,348,308,307,308,307,308,323,324,323,324,323,364,323,324,323,324,364,324,323,324,323,324,364,324,323,324,323,324,307,407,408,721,722,723,724,0,721,722,723,724,0,404,0,669,670,0,0,0,0,308,323,423,424,737,738,739,740,0,737,738,739,740,0,420,0,685,686,0,447,0,0,324,307,0,0,0,0,0,0,0,0,0,0,0,0,0,0,0,0,0,0,0,0,308,323,0,0,0,0,0,0,0,0,0,0,0,0,0,0,0,0,0,0,0,0,324,307,0,0,0,0,0,0,0,0,0,0,0,0,0,0,0,0,0,0,0,0,308,323,0,0,865,866,865,866,865,866,865,866,865,866,865,866,865,866,865,866,865,866,324,307,0,0,0,0,0,0,0,0,0,0,0,0,0,0,0,0,0,0,0,0,308,323,0,0,0,0,0,0,0,0,0,0,0,0,0,0,0,0,0,0,0,0,324,307,0,0,0,0,0,0,0,0,0,0,0,0,0,0,0,0,0,0,0,0,308,323,865,866,865,866,865,866,865,866,865,866,865,866,865,866,865,866,865,866,0,0,324,307,467,468,0,0,0,0,0,0,0,0,0,0,0,0,0,0,0,0,0,0,308,323,483,484,0,0,0,0,0,0,0,0,0,0,0,0,0,0,0,0,0,0,324,307,469,470,0,439,440,0,0,0,0,0,0,0,0,0,0,0,0,0,0,0,308,323,485,486,0,455,456,0,0,0,0,0,0,0,0,0,0,0,0,0,0,0,324,307,308,307,460,307,348,307,308,348,308,339,340,460,308,348,308,307,348,307,460,307,308,323,324,323,324,323,364,323,324,364,324,355,356,323,324,364,324,323,364,323,324,323,324],"height":18,"id":2,"locked":true,"name":"structures","opacity":1,"type":"tilelayer","visible":true,"width":22,"x":0,"y":0},{"data":[0,0,0,0,0,0,0,0,0,0,0,0,0,0,0,0,0,0,0,0,0,0,0,0,0,0,0,0,0,0,0,0,0,0,0,0,0,0,0,0,0,0,0,0,0,0,0,0,0,0,0,0,0,0,0,0,0,0,0,0,0,0,0,0,0,0,0,0,0,0,0,0,0,0,0,0,0,0,0,0,0,0,0,0,0,0,0,0,0,0,0,0,0,0,0,0,0,0,0,0,0,0,0,0,0,0,0,0,0,0,0,0,0,0,0,0,0,0,0,0,0,0,0,0,0,0,0,0,0,0,0,0,0,0,0,849,850,849,850,849,850,849,850,849,850,849,850,849,850,849,850,849,850,0,0,0,0,0,0,0,0,0,0,0,0,0,0,0,0,0,0,0,0,0,0,0,0,0,0,0,0,0,0,0,0,0,0,0,0,0,0,0,0,0,0,0,0,0,0,0,0,0,0,0,0,0,0,0,0,0,0,0,0,0,0,0,0,0,0,0,0,849,850,849,850,849,850,849,850,849,850,849,850,849,850,849,850,849,850,0,0,0,0,0,0,0,0,0,0,0,0,0,0,0,0,0,0,0,0,0,0,0,0,0,0,0,0,0,0,0,0,0,0,0,0,0,0,0,0,0,0,0,0,0,0,0,0,0,0,0,0,0,0,0,0,0,0,0,0,0,0,0,0,0,0,0,0,0,0,0,0,0,0,0,0,0,0,0,0,0,0,0,0,0,0,0,0,0,0,0,0,0,0,0,0,0,0,0,0,0,0,0,0,0,0,0,0,0,0,0,0,0,0,0,0,0,0,0,0,0,0,0,0,0,0,0,0,0,0,0,0,0,0,0,0,0,0,0,0,0,0,0,0,0,0,0,0,0,0,0,0,0,0,0,0,0],"height":18,"id":3,"locked":true,"name":"overlay","opacity":1,"type":"tilelayer","visible":true,"width":22,"x":0,"y":0}],"nextlayerid":4,"nextobjectid":1,"orientation":"orthogonal","renderorder":"right-down","tiledversion":"1.12.2","tileheight":48,"tilesets":[{"columns":16,"firstgid":1,"image":"../../assets/tilesets/Medieval Tavern/Auto-tile-A4-Walls-1.png","imageheight":720,"imagewidth":768,"margin":0,"name":"shared-a4-floors","spacing":0,"tilecount":240,"tileheight":48,"tilewidth":48},{"columns":16,"firstgid":241,"image":"../../assets/tilesets/19th Century European City/tile-B-04.png","imageheight":768,"imagewidth":768,"margin":0,"name":"european-city-b04","spacing":0,"tilecount":256,"tileheight":48,"tilewidth":48},{"columns":16,"firstgid":497,"image":"../../assets/tilesets/19th Century European City/tile-B-02.png","imageheight":768,"imagewidth":768,"margin":0,"name":"european-city-b02","spacing":0,"tilecount":256,"tileheight":48,"tilewidth":48},{"columns":16,"firstgid":753,"image":"../../assets/tilesets/19th Centruy European Dock/tile-B-04.png","imageheight":768,"imagewidth":768,"margin":0,"name":"european-dock-b04","spacing":0,"tilecount":256,"tileheight":48,"tilewidth":48}],"tilewidth":48,"type":"map","version":"1.10","width":22}