{"compressionlevel":-1,"height":14,"infinite":false,"layers":[{"data":[1,2,1,2,1,2,1,2,1,2,1,2,1,2,1,2,17,18,17,18,17,18,17,18,17,18,17,18,17,18,17,18,1,2,1,2,1,2,1,2,1,2,1,2,1,2,1,2,17,18,17,18,17,18,17,18,17,18,17,18,17,18,17,18,1,2,1,2,1,2,43,44,1,2,1,2,1,2,1,2,17,18,17,18,17,18,59,60,17,18,17,18,17,18,17,18,1,2,1,2,1,2,1,2,1,2,1,2,1,2,1,2,17,18,17,18,17,18,17,18,17,18,17,18,17,18,17,18,1,2,1,2,1,2,1,2,1,2,1,2,1,2,1,2,17,18,17,18,17,18,17,18,17,18,17,18,17,18,17,18,1,2,1,2,1,2,1,2,1,2,1,2,1,2,1,2,17,18,17,18,17,18,17,18,17,18,17,18,17,18,17,18,1,2,1,2,1,2,1,2,1,2,1,2,1,2,1,2,17,18,17,18,17,18,17,18,17,18,17,18,17,18,17,18],"height":14,"id":1,"name":"ground","opacity":1,"type":"tilelayer","visible":true,"width":16,"x":0,"y":0},{"data":[73,74,73,108,73,74,73,74,73,74,73,74,108,74,73,74,89,90,89,124,89,90,89,90,89,90,89,90,124,90,89,90,73,167,168,0,0,289,290,291,292,0,0,0,172,173,164,74,89,183,184,0,0,305,306,307,308,0,0,0,188,189,180,90,73,0,0,0,0,0,0,0,0,0,0,0,0,0,0,74,89,0,0,0,0,0,0,0,0,0,0,0,0,0,0,90,73,0,0,174,0,0,0,0,0,0,0,0,0,0,0,74,89,0,0,190,0,0,0,0,0,0,0,0,0,0,0,90,73,227,228,0,0,0,0,0,0,0,0,0,0,229,230,74,89,243,244,0,0,0,0,0,0,0,0,0,0,245,246,90,73,0,0,0,0,0,0,0,0,0,0,0,0,0,0,74,89,0,0,0,0,0,0,0,0,0,0,0,0,0,0,90,73,74,220,74,108,74,73,99,100,74,73,108,73,220,73,74,89,90,89,90,124,90,89,115,116,90,89,124,89,90,89,90],"height":14,"id":2,"locked":true,"name":"structures","opacity":1,"type":"tilelayer","visible":true,"width":16,"x":0,"y":0}],"nextlayerid":3,"nextobjectid":1,"orientation":"orthogonal","renderorder":"right-down","tiledversion":"1.12.2","tileheight":48,"tilesets":[{"columns":16,"firstgid":1,"image":"../../assets/tilesets/19th Century European City/tile-B-04.png","imageheight":768,"imagewidth":768,"margin":0,"name":"european-city-b04","spacing":0,"tilecount":256,"tileheight":48,"tilewidth":48},{"columns":16,"firstgid":257,"image":"../../assets/tilesets/19th Century European City/tile-B-02.png","imageheight":768,"imagewidth":768,"margin":0,"name":"european-city-b02","spacing":0,"tilecount":256,"tileheight":48,"tilewidth":48}],"tilewidth":48,"type":"map","version":"1.10","width":16}