{"compressionlevel":-1,"height":12,"infinite":false,"layers":[{"data":[825,826,825,826,825,826,825,826,825,826,823,824,823,824,825,826,825,826,825,826,825,826,825,841,842,841,842,841,842,841,842,841,842,839,840,839,840,841,842,841,842,841,842,841,842,841,825,718,717,718,717,718,717,722,721,722,721,722,721,722,721,722,721,722,721,722,721,722,825,841,734,733,734,733,734,733,738,737,738,737,738,737,738,737,738,737,738,737,738,737,738,841,825,718,717,718,717,718,717,722,721,722,721,722,721,722,721,730,729,730,729,730,729,730,825,841,734,733,734,733,734,733,738,737,738,737,738,737,738,737,746,745,746,745,746,745,746,841,825,722,721,722,721,722,721,722,721,722,721,722,721,722,721,730,729,730,729,730,729,730,825,841,738,737,738,737,738,737,738,737,738,737,738,737,738,737,746,745,746,745,746,745,746,841,825,722,721,722,721,722,721,722,721,722,729,730,729,730,721,730,729,730,729,730,729,730,825,841,738,737,738,737,738,737,738,737,738,745,746,745,746,737,746,745,746,745,746,745,746,841,825,826,825,826,825,826,825,826,825,826,825,826,825,826,825,826,825,826,825,826,825,826,825,841,842,841,842,841,842,841,842,841,842,841,842,841,842,841,842,841,842,841,842,841,842,841],"height":12,"id":1,"name":"ground","opacity":1,"type":"tilelayer","visible":true,"width":23,"x":0,"y":0},{"data":[0,0,0,0,0,268,0,0,0,267,0,681,681,0,268,0,0,0,267,0,0,0,0,0,0,0,653,0,284,0,0,653,283,0,697,697,0,284,653,0,0,283,0,653,0,0,0,1019,1020,0,0,453,454,297,298,329,330,0,0,0,299,300,331,332,0,641,642,0,0,0,1035,1036,1145,1146,469,470,313,314,345,346,0,0,378,315,316,347,348,0,657,658,0,0,0,1051,1052,1161,1162,645,646,0,0,0,0,493,494,0,0,1113,1114,0,0,0,0,0,685,0,378,0,491,492,661,205,0,205,0,0,201,0,201,0,1129,1130,1142,1143,1144,0,0,0,685,0,141,142,201,0,677,678,679,680,0,677,678,679,680,0,0,1158,1159,1160,643,644,0,0,0,157,158,205,0,693,694,695,696,0,693,694,695,696,0,0,0,0,0,659,660,0,0,449,450,451,452,481,482,205,0,205,0,505,506,205,0,0,0,0,0,485,486,0,0,0,465,466,467,468,497,498,705,706,707,0,0,0,705,706,707,0,0,0,501,502,381,0,0,0,0,0,0,653,0,0,0,653,0,681,681,0,653,0,0,0,653,0,0,0,0,0,0,0,0,0,0,0,0,0,0,0,697,697,0,0,0,0,0,0,0,0,0,0],"height":12,"id":2,"locked":true,"name":"structures","opacity":1,"type":"tilelayer","visible":true,"width":23,"x":0,"y":0},{"data":[0,0,0,0,0,0,0,0,0,0,0,0,0,0,0,0,0,0,0,0,0,0,0,0,0,0,0,0,0,0,0,0,0,0,0,0,0,0,0,0,0,0,0,0,0,0,0,0,0,0,0,0,0,0,0,0,0,0,0,362,0,0,0,0,0,0,0,0,0,0,0,0,0,0,0,0,0,0,0,0,0,0,0,0,0,0,0,0,0,0,0,0,0,362,0,0,0,0,0,0,0,0,0,0,0,0,0,0,0,0,0,0,0,0,0,0,0,0,0,0,0,0,0,0,0,0,0,0,0,0,0,0,0,0,0,0,0,0,0,0,0,0,0,0,0,0,0,0,0,0,0,0,0,0,0,0,0,0,0,0,0,0,0,0,0,0,0,0,0,0,0,0,0,0,0,0,0,0,0,0,0,0,0,0,0,0,0,0,0,0,0,0,0,0,0,0,0,0,0,0,0,0,0,0,0,365,0,0,0,0,0,0,0,0,0,0,0,0,0,0,0,0,0,0,0,0,0,0,0,0,0,0,0,0,0,0,0,0,0,0,0,0,0,0,0,0,0,0,0,0,0,0,0,0,0,0,0,0,0,0,0,0,0,0,0,0,0,0,0,0,0,0,0,0,0,0],"height":12,"id":3,"locked":true,"name":"overlay","opacity":1,"type":"tilelayer","visible":true,"width":23,"x":0,"y":0}],"nextlayerid":4,"nextobjectid":1,"orientation":"orthogonal","renderorder":"right-down","tiledversion":"1.12.2","tileheight":48,"tilesets":[{"columns":16,"firstgid":1,"image":"../../assets/tilesets/Medieval Tavern/tile-B-01.png","imageheight":768,"imagewidth":768,"margin":0,"name":"medieval-tavern-b01","spacing":0,"tilecount":256,"tileheight":48,"tilewidth":48},{"columns":16,"firstgid":257,"image":"../../assets/tilesets/Medieval Tavern/tile-B-03.png","imageheight":768,"imagewidth":768,"margin":0,"name":"medieval-tavern-b03","spacing":0,"tilecount":256,"tileheight":48,"tilewidth":48},{"columns":16,"firstgid":513,"image":"../../assets/tilesets/Medieval Tavern/tile-B-05.png","imageheight":768,"imagewidth":768,"margin":0,"name":"medieval-tavern-b05","spacing":0,"tilecount":256,"tileheight":48,"tilewidth":48},{"columns":16,"firstgid":769,"image":"../../assets/tilesets/Medieval Tavern/Auto-tile-A4-walls-2.png","imageheight":720,"imagewidth":768,"margin":0,"name":"medieval-tavern-walls-2","spacing":0,"tilecount":240,"tileheight":48,"tilewidth":48},{"columns":16,"firstgid":1009,"image":"../../assets/tilesets/Island survival/5.png","imageheight":768,"imagewidth":768,"margin":0,"name":"island-survival-05","spacing":0,"tilecount":256,"tileheight":48,"tilewidth":48}],"tilewidth":48,"type":"map","version":"1.10","width":23}