{"compressionlevel":-1,"height":14,"infinite":false,"layers":[{"data":[59,60,59,60,59,60,59,60,59,60,59,60,59,60,59,60,59,60,75,76,75,76,75,76,75,76,75,76,75,76,75,76,75,76,75,76,59,60,59,60,59,60,59,60,59,60,59,60,59,60,59,60,59,60,75,76,75,76,75,76,75,76,75,76,75,76,75,76,75,76,75,76,59,60,59,60,59,60,59,60,59,60,59,60,59,60,59,60,59,60,75,76,75,76,75,76,75,76,75,76,75,76,75,76,75,76,75,76,59,60,59,60,59,60,59,60,59,60,59,60,59,60,59,60,59,60,75,76,75,76,75,76,75,76,75,76,75,76,75,76,75,76,75,76,59,60,59,60,59,60,59,60,59,60,59,60,59,60,59,60,59,60,75,76,75,76,75,76,75,76,75,76,75,76,75,76,75,76,75,76,59,60,59,60,59,60,59,60,59,60,59,60,59,60,59,60,59,60,75,76,75,76,75,76,75,76,75,76,75,76,75,76,75,76,75,76,59,60,59,60,59,60,59,60,59,60,59,60,59,60,59,60,59,60,75,76,75,76,75,76,75,76,75,76,75,76,75,76,75,76,75,76],"height":14,"id":1,"name":"ground","opacity":1,"type":"tilelayer","visible":true,"width":18,"x":0,"y":0},{"data":[299,300,299,300,1100,300,299,300,299,300,299,300,299,1100,299,300,299,300,315,316,315,316,1116,316,315,316,315,316,315,316,315,1116,315,316,315,316,299,873,874,0,0,0,0,897,898,0,0,653,654,0,751,752,0,300,315,889,890,0,0,0,0,913,914,0,0,669,670,0,767,768,0,316,299,0,0,0,0,0,0,0,0,0,0,0,0,0,0,0,0,300,315,0,0,0,0,0,0,0,0,0,0,0,0,0,0,0,0,316,299,0,0,0,0,0,0,0,0,0,0,0,0,0,0,0,0,300,315,689,690,689,690,689,690,689,690,689,690,0,0,689,690,689,690,316,299,929,930,0,0,0,0,0,0,0,0,0,0,0,869,870,0,300,315,945,946,0,0,0,0,0,0,0,0,0,0,0,885,886,0,316,299,937,938,0,0,0,0,0,0,0,0,0,0,0,0,0,0,300,315,953,954,0,0,0,0,0,0,0,0,0,0,0,0,0,0,316,299,300,299,300,1100,300,1100,300,1091,1092,299,1100,299,1100,299,300,299,300,315,316,315,316,1116,316,1116,316,1107,1108,315,1116,315,1116,315,316,315,316],"height":14,"id":2,"locked":true,"name":"structures","opacity":1,"type":"tilelayer","visible":true,"width":18,"x":0,"y":0},{"data":[0,0,0,0,0,0,0,0,0,0,0,0,0,0,0,0,0,0,0,0,0,0,0,0,0,0,0,0,0,0,0,0,0,0,0,0,0,0,0,0,0,0,0,0,0,0,0,0,0,0,0,0,0,0,0,0,0,0,0,0,0,0,0,0,0,0,0,0,0,0,0,0,0,0,0,0,0,0,0,0,0,0,0,0,0,0,0,0,0,0,0,0,0,0,0,0,0,0,0,0,0,0,0,0,0,0,0,0,0,673,674,673,674,673,674,673,674,673,674,0,0,673,674,673,674,0,0,0,0,0,0,0,0,0,0,0,0,0,0,0,0,0,0,0,0,0,0,0,0,0,0,0,0,0,0,0,0,0,0,0,0,0,0,0,0,0,0,0,0,0,0,0,0,0,0,0,0,0,0,0,0,0,0,0,0,0,0,0,0,0,0,0,0,0,0,0,0,0,0,0,0,0,0,0,0,0,0,0,0,0,0,0,0,0,0,0,0,0,0,0,0,0,0,0,0,0,0,0,0,0,0,0,0,0,0,0,0,0,0,0,0,0,0,0,0,0,0,0,0,0,0,0],"height":14,"id":3,"locked":true,"name":"overlay","opacity":1,"type":"tilelayer","visible":true,"width":18,"x":0,"y":0}],"nextlayerid":4,"nextobjectid":1,"orientation":"orthogonal","renderorder":"right-down","tiledversion":"1.12.2","tileheight":48,"tilesets":[{"columns":16,"firstgid":1,"image":"../../assets/tilesets/Medieval Tavern/Auto-tile-A4-Walls-1.png","imageheight":720,"imagewidth":768,"margin":0,"name":"shared-a4-floors","spacing":0,"tilecount":240,"tileheight":48,"tilewidth":48},{"columns":16,"firstgid":241,"image":"../../assets/tilesets/Medieval Tavern/Auto-tile-A4-walls-3.png","imageheight":720,"imagewidth":768,"margin":0,"name":"shared-a4-walls-b","spacing":0,"tilecount":240,"tileheight":48,"tilewidth":48},{"columns":16,"firstgid":481,"image":"../../assets/tilesets/Wild West/tile-B-03.png","imageheight":768,"imagewidth":768,"margin":0,"name":"wild-west-b03","spacing":0,"tilecount":256,"tileheight":48,"tilewidth":48},{"columns":16,"firstgid":737,"image":"../../assets/tilesets/Wild West/tile-B-09.png","imageheight":768,"imagewidth":768,"margin":0,"name":"wild-west-b09","spacing":0,"tilecount":256,"tileheight":48,"tilewidth":48},{"columns":16,"firstgid":993,"image":"../../assets/tilesets/19th Century European City/tile-B-04.png","imageheight":768,"imagewidth":768,"margin":0,"name":"european-city-b04","spacing":0,"tilecount":256,"tileheight":48,"tilewidth":48}],"tilewidth":48,"type":"map","version":"1.10","width":18}