{"compressionlevel":-1,"height":14,"infinite":false,"layers":[{"data":[59,60,59,60,59,60,59,60,59,60,59,60,59,60,59,60,75,76,75,76,75,76,75,76,75,76,75,76,75,76,75,76,59,60,59,60,59,60,59,60,59,60,59,60,59,60,59,60,75,76,75,76,75,76,75,76,75,76,75,76,75,76,75,76,59,60,59,60,59,60,59,60,59,60,59,60,59,60,59,60,75,76,75,76,75,76,75,76,75,76,75,76,75,76,75,76,59,60,59,60,59,60,59,60,59,60,59,60,59,60,59,60,75,76,75,76,75,76,75,76,75,76,75,76,75,76,75,76,59,60,59,60,59,60,59,60,59,60,59,60,59,60,59,60,75,76,75,76,75,76,75,76,75,76,75,76,75,76,75,76,59,60,59,60,59,60,59,60,59,60,59,60,59,60,59,60,75,76,75,76,75,76,75,76,75,76,75,76,75,76,75,76,59,60,59,60,59,60,59,60,59,60,59,60,59,60,59,60,75,76,75,76,75,76,75,76,75,76,75,76,75,76,75,76],"height":14,"id":1,"name":"ground","opacity":1,"type":"tilelayer","visible":true,"width":16,"x":0,"y":0},{"data":[297,298,297,298,297,298,297,298,297,298,297,298,297,298,297,298,313,314,313,314,313,314,313,314,313,314,313,314,313,314,313,314,297,0,897,898,0,0,905,906,0,0,751,752,0,845,846,298,313,0,913,914,0,0,921,922,0,0,767,768,0,861,862,314,297,0,0,0,0,0,0,0,0,0,0,0,0,0,0,298,313,0,0,0,0,0,0,0,0,0,0,0,0,0,0,314,297,0,0,0,0,0,0,0,0,0,0,0,0,0,0,298,313,691,692,691,692,691,692,699,700,0,0,691,692,691,692,314,297,929,930,0,0,0,0,0,0,0,0,0,867,868,0,298,313,945,946,0,0,0,0,0,0,0,0,0,883,884,0,314,297,937,938,0,0,0,0,0,0,0,0,0,0,0,0,298,313,953,954,0,0,0,0,0,0,0,0,0,0,0,0,314,297,298,297,1100,297,1100,297,1091,1092,298,1100,298,1100,298,297,298,313,314,313,1116,313,1116,313,1107,1108,314,1116,314,1116,314,313,314],"height":14,"id":2,"locked":true,"name":"structures","opacity":1,"type":"tilelayer","visible":true,"width":16,"x":0,"y":0},{"data":[0,0,0,0,0,0,0,0,0,0,0,0,0,0,0,0,0,0,0,0,0,0,0,0,0,0,0,0,0,0,0,0,0,0,0,0,0,0,0,0,0,0,0,0,0,0,0,0,0,0,0,0,0,0,0,0,0,0,0,0,0,0,0,0,0,0,0,0,0,0,0,0,0,0,0,0,0,0,0,0,0,0,0,0,0,0,0,0,0,0,0,0,0,0,0,0,0,675,676,675,676,675,676,683,684,0,0,675,676,675,676,0,0,0,0,0,0,0,0,0,0,0,0,0,0,0,0,0,0,0,0,0,0,0,0,0,0,0,0,0,0,0,0,0,0,0,0,0,0,0,0,0,0,0,0,0,0,0,0,0,0,0,0,0,0,0,0,0,0,0,0,0,0,0,0,0,0,0,0,0,0,0,0,0,0,0,0,0,0,0,0,0,0,0,0,0,0,0,0,0,0,0,0,0,0,0,0,0,0,0,0,0,0,0,0,0,0,0,0,0,0,0,0,0],"height":14,"id":3,"locked":true,"name":"overlay","opacity":1,"type":"tilelayer","visible":true,"width":16,"x":0,"y":0}],"nextlayerid":4,"nextobjectid":1,"orientation":"orthogonal","renderorder":"right-down","tiledversion":"1.12.2","tileheight":48,"tilesets":[{"columns":16,"firstgid":1,"image":"../../assets/tilesets/Medieval Tavern/Auto-tile-A4-Walls-1.png","imageheight":720,"imagewidth":768,"margin":0,"name":"shared-a4-floors","spacing":0,"tilecount":240,"tileheight":48,"tilewidth":48},{"columns":16,"firstgid":241,"image":"../../assets/tilesets/Medieval Tavern/Auto-tile-A4-walls-3.png","imageheight":720,"imagewidth":768,"margin":0,"name":"shared-a4-walls-b","spacing":0,"tilecount":240,"tileheight":48,"tilewidth":48},{"columns":16,"firstgid":481,"image":"../../assets/tilesets/Wild West/tile-B-03.png","imageheight":768,"imagewidth":768,"margin":0,"name":"wild-west-b03","spacing":0,"tilecount":256,"tileheight":48,"tilewidth":48},{"columns":16,"firstgid":737,"image":"../../assets/tilesets/Wild West/tile-B-09.png","imageheight":768,"imagewidth":768,"margin":0,"name":"wild-west-b09","spacing":0,"tilecount":256,"tileheight":48,"tilewidth":48},{"columns":16,"firstgid":993,"image":"../../assets/tilesets/19th Century European City/tile-B-04.png","imageheight":768,"imagewidth":768,"margin":0,"name":"european-city-b04","spacing":0,"tilecount":256,"tileheight":48,"tilewidth":48}],"tilewidth":48,"type":"map","version":"1.10","width":16}