{"compressionlevel":-1,"height":14,"infinite":false,"layers":[{"data":[1,2,1,2,1,2,1,2,1,2,1,2,1,2,1,2,1,2,17,18,17,18,17,18,17,18,17,18,17,18,17,18,17,18,17,18,1,2,1,2,1,2,1,2,1,2,1,2,1,2,1,2,1,2,17,18,17,18,17,18,17,18,17,18,17,18,17,18,17,18,17,18,1,2,1,2,1,2,1,2,1,2,1,2,1,2,1,2,1,2,55,56,55,56,55,56,55,56,55,56,55,56,55,56,55,56,55,56,39,40,39,40,39,40,39,40,39,40,39,40,39,40,39,40,39,40,55,56,55,56,55,56,55,56,55,56,55,56,55,56,55,56,55,56,39,40,39,40,39,40,39,40,39,40,39,40,39,40,39,40,39,40,55,56,55,56,55,56,55,56,55,56,55,56,55,56,55,56,55,56,39,40,39,40,39,40,39,40,39,40,39,40,39,40,39,40,39,40,55,56,55,56,55,56,55,56,55,56,55,56,55,56,55,56,55,56,39,40,39,40,39,40,39,40,39,40,39,40,39,40,39,40,39,40,55,56,55,56,55,56,55,56,55,56,55,56,55,56,55,56,55,56],"height":14,"id":1,"name":"ground","opacity":1,"type":"tilelayer","visible":true,"width":18,"x":0,"y":0},{"data":[77,78,77,108,77,78,77,66,97,98,65,78,77,78,108,78,77,78,93,94,93,124,93,94,93,82,113,114,81,94,93,94,124,94,93,94,77,167,168,169,170,171,164,0,0,0,0,174,172,173,0,0,207,78,220,183,184,185,186,187,180,0,0,0,0,190,188,189,0,0,254,94,77,0,0,0,0,0,0,0,0,0,0,0,43,44,0,174,0,78,89,0,0,0,0,0,0,0,0,0,0,0,59,60,0,190,0,90,220,0,0,0,0,0,0,0,0,0,0,0,0,0,0,0,0,220,89,0,481,482,483,484,0,0,485,486,0,0,429,430,0,485,486,90,73,0,497,498,499,500,0,0,501,502,0,0,445,446,0,501,502,74,89,174,0,0,174,0,0,0,0,0,0,0,0,0,0,0,0,90,73,174,174,174,190,0,0,0,0,0,0,0,0,0,0,0,0,220,89,190,190,190,0,0,0,0,0,0,0,0,0,0,0,0,0,90,73,74,73,74,108,74,108,66,99,100,65,74,108,74,108,74,73,74,89,90,89,90,124,90,124,82,115,116,81,90,124,90,124,90,89,90],"height":14,"id":2,"locked":true,"name":"structures","opacity":1,"type":"tilelayer","visible":true,"width":18,"x":0,"y":0},{"data":[0,0,0,0,0,0,0,0,0,0,0,0,0,0,0,0,0,0,0,0,0,0,0,0,0,0,0,0,0,0,0,0,0,0,0,0,0,0,0,0,0,0,0,0,0,0,0,0,0,0,0,0,0,0,0,0,0,0,0,0,0,0,0,0,0,0,0,0,0,0,0,0,0,0,0,0,0,0,0,0,0,0,0,0,0,0,0,0,0,0,0,0,0,0,0,0,0,0,0,0,0,0,0,0,0,0,0,0,0,0,0,0,0,0,0,0,0,0,0,0,0,0,0,0,0,0,0,0,0,0,0,0,0,0,0,0,0,0,0,0,0,0,0,0,0,0,253,0,255,0,0,0,0,254,0,0,0,0,0,256,0,0,0,0,0,0,0,0,0,0,0,0,0,0,0,0,0,0,0,0,0,0,0,0,0,0,0,0,0,0,0,0,0,0,0,0,0,0,0,0,0,0,0,0,0,0,0,0,0,0,0,0,0,0,0,0,0,0,0,0,0,0,0,0,0,0,0,0,0,0,0,0,0,0,0,0,0,0,0,0,0,0,0,0,0,0,0,0,0,0,0,0],"height":14,"id":3,"locked":true,"name":"overlay","opacity":1,"type":"tilelayer","visible":true,"width":18,"x":0,"y":0}],"nextlayerid":4,"nextobjectid":1,"orientation":"orthogonal","renderorder":"right-down","tiledversion":"1.12.2","tileheight":48,"tilesets":[{"columns":16,"firstgid":1,"image":"../../assets/tilesets/19th Century European City/tile-B-04.png","imageheight":768,"imagewidth":768,"margin":0,"name":"european-city-b04","spacing":0,"tilecount":256,"tileheight":48,"tilewidth":48},{"columns":16,"firstgid":257,"image":"../../assets/tilesets/19th Century European City/tile-B-02.png","imageheight":768,"imagewidth":768,"margin":0,"name":"european-city-b02","spacing":0,"tilecount":256,"tileheight":48,"tilewidth":48}],"tilewidth":48,"type":"map","version":"1.10","width":18}